apps/filecoin-site/public/assets/logos/smithsonian-logo.svg

<svg width="201" height="40" viewBox="0 0 201 40" fill="none" xmlns="http://www.w3.org/2000/svg">
<defs>
  <mask id="circleMask">
    <rect width="201" height="40" fill="white"/>
    <path d="M31.7169 23.9654C31.3825 23.3233 30.8835 22.7817 30.271 22.3959C29.6584 22.0101 28.9544 21.794 28.2309 21.7697L36.6 20.0089L28.2309 18.2624C29.3998 17.2868 30.8649 16.7365 32.387 16.7012C34.2262 16.7012 35.823 14.3986 34.8036 12.652C34.8036 12.652 34.5042 15.3966 31.0681 14.4841C30.3788 14.2637 29.6427 14.2334 28.9375 14.3966C28.2324 14.5597 27.5843 14.9101 27.0618 15.4109L31.7525 8.2037L24.6237 12.9229C24.7471 11.3927 25.3825 9.94869 26.4273 8.8239C27.7105 7.49082 27.2471 4.75339 25.301 4.24012C25.301 4.24012 27.0119 6.37874 23.9394 8.19657C23.2992 8.53924 22.7605 9.04446 22.3776 9.66141C21.9947 10.2784 21.781 10.9853 21.758 11.711L20.0114 3.29199L18.2649 11.7253C17.2903 10.5453 16.7427 9.07081 16.7108 7.54073C16.7108 5.68012 14.4296 4.07615 12.6974 5.10269C12.6974 5.10269 15.4205 5.4021 14.5081 8.86667C14.2929 9.56235 14.2653 10.3025 14.4281 11.0123C14.5908 11.722 14.9381 12.3762 15.4348 12.9087L8.30604 8.18231L12.1271 14.0635L12.9682 15.4109C11.4497 15.2694 10.0243 14.6158 8.92625 13.5574C7.60743 12.2314 4.88425 12.7019 4.37811 14.698C4.37811 14.698 6.51673 12.9728 8.30604 16.0738C8.64078 16.715 9.14004 17.2556 9.75262 17.6402C10.3652 18.0248 11.0691 18.2395 11.792 18.2624L3.42285 19.9947L11.792 21.7555C10.6226 22.73 9.1578 23.2802 7.63594 23.3167C5.7896 23.3167 4.19989 25.6192 5.21217 27.3658C5.21217 27.3658 5.51871 24.6212 8.95476 25.5337C9.64477 25.7532 10.3812 25.7823 11.0864 25.6179C11.7916 25.4536 12.4393 25.1018 12.9611 24.5998L8.27753 31.807L15.4063 27.0878C15.2719 28.6102 14.6349 30.0448 13.5956 31.1654C12.3124 32.4985 12.7758 35.2359 14.7219 35.7492C14.7219 35.7492 13.011 33.6106 16.0835 31.7927C16.729 31.4479 17.2707 30.9371 17.6529 30.313C18.0351 29.689 18.2439 28.9743 18.2578 28.2426L20.0114 36.7116L21.758 28.2783C22.7296 29.4599 23.2768 30.9334 23.3121 32.4628C23.3121 34.3234 25.5933 35.9274 27.3255 34.9009C27.3255 34.9009 24.6024 34.6015 25.5077 31.1369C25.7243 30.4414 25.7527 29.7009 25.5899 28.9908C25.4271 28.2808 25.079 27.6266 24.581 27.0949L31.7097 31.8141L29.2788 28.0074L27.0618 24.607C28.5792 24.7528 30.0031 25.4057 31.1038 26.4604C32.4226 27.7579 35.1458 27.2874 35.6519 25.327C35.6519 25.327 33.5133 27.0521 31.724 23.9511" fill="black"/>
  </mask>
</defs>

<!-- Gray circle with sun cutout -->
<circle cx="20" cy="20" r="19.5" fill="#9F9FA9" mask="url(#circleMask)"/>

<!-- Text paths remain unchanged -->
<path d="M57.0027 15.3451C56.4467 13.3562 55.6482 11.2033 52.9536 11.2033C52.4968 11.1786 52.0399 11.2504 51.6127 11.414C51.1855 11.5776 50.7976 11.8293 50.4741 12.1527C50.1506 12.4762 49.8989 12.8642 49.7353 13.2914C49.5717 13.7186 49.5 14.1754 49.5246 14.6322C49.5246 16.9063 51.0074 17.9614 53.4526 19.2374C55.8977 20.5134 58.7991 21.9463 58.7991 25.4394C58.7991 28.7044 56.0474 31.3206 51.9342 31.3206C50.9098 31.31 49.8921 31.154 48.9116 30.8573C48.3882 30.681 47.8803 30.4617 47.3931 30.2014C47.0118 28.6099 46.7332 26.9954 46.5591 25.3681L47.4573 25.1471C47.9848 27.0505 49.3393 30.1943 52.5258 30.1943C53.0251 30.2334 53.5268 30.1633 53.9962 29.989C54.4657 29.8147 54.8915 29.5403 55.2442 29.1849C55.597 28.8294 55.8681 28.4015 56.0388 27.9307C56.2095 27.46 56.2757 26.9577 56.2328 26.4588C56.2328 24.1562 54.5362 23.0655 52.2122 21.818C50.2375 20.7558 47.1151 19.2018 47.1151 15.6802C47.1151 12.6932 49.4961 10.1411 53.4811 10.1411C54.8077 10.175 56.1209 10.4155 57.3734 10.854C57.5017 11.9732 57.6585 13.1922 57.9009 15.1312L57.0027 15.3451Z" fill="#9F9FA9"/>
<path d="M77.7475 30.8503V30.0376C79.5653 29.8523 79.8861 29.7311 79.8861 27.514V22.3172C79.8861 20.1073 79.1162 18.7029 77.17 18.7029C75.8691 18.8362 74.6535 19.4125 73.7269 20.3354C73.7977 20.7689 73.8287 21.2079 73.8195 21.6471V27.7208C73.8195 29.6812 74.0976 29.8594 75.8013 30.0519V30.8645H69.1858V30.0376C71.0963 29.8523 71.3815 29.6954 71.3815 27.6423V22.2815C71.3815 19.9789 70.5759 18.7171 68.6868 18.7171C67.4536 18.7171 66.2488 19.5583 65.3221 20.3354V27.6423C65.3221 29.6669 65.5644 29.8523 67.0829 30.0376V30.8503H60.5601V30.0376C62.5989 29.8523 62.8769 29.6669 62.8769 27.6423V21.2265C62.8769 19.2304 62.7842 19.0878 60.9949 18.7956V18.0827C62.4671 17.8324 63.9034 17.4039 65.2722 16.8066V19.3302C65.9209 18.8954 66.6052 18.3322 67.532 17.7405C68.2752 17.1984 69.1646 16.8928 70.0841 16.8637C70.8518 16.88 71.5953 17.1353 72.2112 17.594C72.8271 18.0527 73.2846 18.692 73.5201 19.4229C74.3397 18.7897 75.1967 18.2064 76.0865 17.6763C76.7627 17.1849 77.5682 16.9023 78.4033 16.8637C80.8128 16.8637 82.3241 18.5817 82.3241 21.6328V27.6423C82.3241 29.7311 82.5736 29.8523 84.3344 30.0376V30.8503H77.7475Z" fill="#9F9FA9"/>
<path d="M87.6637 12.5655C87.6609 12.3552 87.6997 12.1464 87.7777 11.9511C87.8558 11.7558 87.9717 11.5779 88.1188 11.4276C88.2658 11.2772 88.4411 11.1574 88.6346 11.0749C88.8281 10.9925 89.036 10.9491 89.2463 10.9473C89.4526 10.9518 89.6559 10.9975 89.8442 11.0818C90.0325 11.1661 90.2021 11.2872 90.3429 11.438C90.4837 11.5888 90.593 11.7662 90.6642 11.9598C90.7354 12.1535 90.7672 12.3594 90.7576 12.5655C90.7576 12.9847 90.5921 13.3869 90.297 13.6846C90.002 13.9823 89.6013 14.1514 89.1822 14.1552C88.7709 14.1354 88.3825 13.9603 88.0954 13.6652C87.8082 13.3702 87.6438 12.9771 87.6352 12.5655M86.0312 30.8507V30.0381C87.9774 29.8527 88.1699 29.6674 88.1699 27.5501V21.1342C88.1699 19.2024 88.0772 19.074 86.2237 18.7675V18.0546C87.7295 17.8219 89.2031 17.4152 90.615 16.8427V27.5501C90.615 29.6887 90.8289 29.8527 92.8036 30.0381V30.8507H86.0312Z" fill="#9F9FA9"/>
<path d="M100.061 30.8237C99.6627 31.0501 99.2198 31.1864 98.7634 31.2229C96.8172 31.2229 95.7336 29.9825 95.7336 27.516V18.4553H93.6093L93.481 18.1417L94.3221 17.2435H95.7479V14.9694L97.7582 12.9092L98.1859 12.9733V17.2506H101.679C101.809 17.4379 101.862 17.668 101.828 17.8935C101.793 18.1189 101.674 18.3226 101.494 18.4625H98.1717V26.4609C98.1717 28.9845 99.1982 29.4479 99.9681 29.4479C100.642 29.4125 101.298 29.2222 101.886 28.8918L102.164 29.733L100.061 30.8237Z" fill="#9F9FA9"/>
<path d="M111.894 30.852V30.0394C113.691 29.854 113.94 29.6687 113.94 27.6441V22.4758C113.94 19.9165 112.978 18.6405 110.91 18.6405C110.292 18.6607 109.685 18.813 109.131 19.0872C108.576 19.3614 108.087 19.7511 107.695 20.2302V27.6441C107.695 29.6402 107.845 29.854 109.67 30.0394V30.852H103.119V30.0394C104.972 29.8897 105.257 29.6972 105.257 27.6441V12.7878C105.257 10.8274 105.2 10.6492 103.119 10.4852V9.77234C104.659 9.51925 106.179 9.15473 107.667 8.68164V19.1395C108.75 18.0203 110.418 16.8654 112.087 16.8654C114.589 16.8654 116.364 18.4552 116.364 22.1906V27.6441C116.364 29.6972 116.578 29.8897 118.403 30.0394V30.852H111.894Z" fill="#9F9FA9"/>
<path d="M127.906 20.9157C127.321 19.0764 126.238 17.836 124.726 17.836C124.452 17.8375 124.18 17.8949 123.929 18.0045C123.677 18.1142 123.45 18.2739 123.262 18.4739C123.074 18.674 122.929 18.9102 122.835 19.1682C122.741 19.4262 122.701 19.7006 122.716 19.9747C122.716 21.4004 123.949 22.1133 125.339 22.6836C127.663 23.6531 129.239 24.7723 129.239 26.9181C129.239 29.7696 126.608 31.1953 124.135 31.1953C122.866 31.2173 121.622 30.8489 120.57 30.1403C120.247 28.9405 120.08 27.7043 120.071 26.4618L120.877 26.305C121.433 28.3652 122.823 30.1688 124.676 30.1688C124.966 30.1766 125.254 30.1256 125.522 30.0189C125.791 29.9122 126.036 29.752 126.241 29.5481C126.447 29.3441 126.608 29.1007 126.717 28.8324C126.825 28.5641 126.878 28.2767 126.872 27.9874C126.872 26.6187 125.981 25.8488 124.434 25.1359C122.581 24.259 120.57 23.2325 120.57 20.8586C120.57 18.6772 122.424 16.838 125.268 16.838C126.212 16.8324 127.147 17.0141 128.02 17.3727C128.323 18.4651 128.55 19.5776 128.697 20.7018L127.906 20.9157Z" fill="#9F9FA9"/>
<path d="M134.429 23.3446C134.429 27.2725 136.125 30.1953 138.663 30.1953C140.581 30.1953 142.156 28.7696 142.156 24.4923C142.156 20.8424 140.731 17.884 138.014 17.884C136.097 17.884 134.45 19.8159 134.45 23.3375M145.051 23.808C145.051 28.7981 141.408 31.2147 138.342 31.2147C137.442 31.2217 136.55 31.0476 135.719 30.7029C134.887 30.3582 134.134 29.8499 133.503 29.2082C132.871 28.5665 132.376 27.8044 132.045 26.9674C131.714 26.1303 131.555 25.2353 131.577 24.3355C131.577 19.1957 135.534 16.8574 138.342 16.8574C139.243 16.8608 140.134 17.0447 140.962 17.3982C141.79 17.7518 142.539 18.2678 143.165 18.9158C143.79 19.5638 144.279 20.3306 144.603 21.1708C144.927 22.0111 145.079 22.9078 145.051 23.808Z" fill="#9F9FA9"/>
<path d="M155.537 30.8519V30.0393C157.362 29.8539 157.583 29.6044 157.583 27.4586V22.2547C157.583 20.116 156.834 18.6903 154.731 18.6903C153.457 18.8124 152.265 19.3745 151.359 20.28V27.6155C151.359 29.7541 151.545 29.8539 153.37 30.0393V30.8519H146.662V30.0393C148.765 29.8254 148.921 29.6686 148.921 27.6155V21.1996C148.921 19.2107 148.736 19.1109 147.068 18.8043V18.0915C148.541 17.8447 149.978 17.416 151.345 16.8154V19.3105C151.965 18.84 152.643 18.3766 153.42 17.842C154.165 17.2857 155.057 16.9609 155.986 16.9081C158.424 16.9081 159.971 18.6261 159.971 21.6416V27.6583C159.971 29.7969 160.128 29.8967 161.917 30.082V30.8947L155.537 30.8519Z" fill="#9F9FA9"/>
<path d="M165.339 12.5655C165.336 12.3558 165.375 12.1476 165.452 11.9528C165.53 11.7579 165.645 11.5803 165.791 11.4301C165.938 11.2798 166.112 11.1598 166.305 11.077C166.497 10.9941 166.705 10.9501 166.914 10.9473C167.123 10.948 167.33 10.991 167.522 11.0735C167.714 11.156 167.887 11.2764 168.032 11.4275C168.176 11.5785 168.289 11.7572 168.363 11.9527C168.436 12.1483 168.47 12.3567 168.461 12.5655C168.459 12.9853 168.292 13.3875 167.996 13.685C167.7 13.9825 167.298 14.1515 166.879 14.1552C166.469 14.1337 166.082 13.9578 165.796 13.6629C165.511 13.368 165.347 12.976 165.339 12.5655ZM163.699 30.8507V30.0381C165.645 29.8527 165.838 29.6674 165.838 27.5501V21.1342C165.838 19.2024 165.745 19.074 163.892 18.7675V18.0546C165.397 17.8219 166.871 17.4152 168.283 16.8427V27.5501C168.283 29.6887 168.497 29.8527 170.479 30.0381V30.8507H163.699Z" fill="#9F9FA9"/>
<path d="M179.582 23.3742C178.934 23.7163 177.444 24.3722 176.802 24.6858C175.597 25.249 174.92 25.8336 174.92 26.9599C174.903 27.2623 174.946 27.5651 175.048 27.8504C175.15 28.1358 175.308 28.3978 175.512 28.6211C175.717 28.8444 175.964 29.0244 176.24 29.1504C176.515 29.2765 176.813 29.3461 177.116 29.3552C178.036 29.2537 178.9 28.8617 179.582 28.236V23.3742ZM181.842 31.2158C181.317 31.1733 180.818 30.9662 180.416 30.6241C180.065 30.2145 179.821 29.7249 179.703 29.1983C178.47 30.0395 176.98 31.1873 176.054 31.1873C175.56 31.1826 175.073 31.0805 174.619 30.8868C174.165 30.693 173.754 30.4115 173.41 30.0584C173.065 29.7053 172.794 29.2875 172.612 28.8292C172.429 28.3708 172.339 27.8809 172.347 27.3876C172.347 25.8621 173.152 24.8997 174.849 24.308C176.702 23.6807 178.962 22.8395 179.639 22.2835V21.7631C179.639 19.5246 178.591 18.2415 177.044 18.2415C176.774 18.2263 176.504 18.2752 176.256 18.3843C176.009 18.4933 175.79 18.6593 175.619 18.8688C175.144 19.4657 174.826 20.1713 174.692 20.9219C174.656 21.1301 174.544 21.3178 174.378 21.4492C174.213 21.5806 174.005 21.6466 173.794 21.6347C173.448 21.6008 173.125 21.449 172.879 21.205C172.632 20.9609 172.477 20.6395 172.439 20.2945C172.439 19.824 172.839 19.4819 173.423 19.047C174.82 18.0365 176.394 17.2966 178.064 16.8656C178.974 16.8532 179.861 17.1497 180.58 17.7068C181.664 18.6122 181.97 19.8882 181.97 21.5064V27.3021C181.97 28.7278 182.526 29.1698 183.054 29.1698C183.448 29.1513 183.83 29.0336 184.166 28.8277L184.473 29.6403L181.842 31.2158Z" fill="#9F9FA9"/>
<path d="M194.124 30.8519V30.0393C195.949 29.8539 196.163 29.6044 196.163 27.4586V22.2547C196.163 20.116 195.45 18.6903 193.354 18.6903C192.08 18.8112 190.887 19.3735 189.983 20.28V27.6155C189.983 29.7541 190.168 29.8539 191.993 30.0393V30.8519H185.285V30.0393C187.388 29.8254 187.544 29.6686 187.544 27.6155V21.1996C187.544 19.2107 187.359 19.1109 185.691 18.8043V18.0915C187.164 17.8437 188.6 17.4151 189.968 16.8154V19.3105C190.588 18.84 191.266 18.3766 192.043 17.842C192.786 17.287 193.676 16.9623 194.602 16.9081C197.047 16.9081 198.594 18.6261 198.594 21.6416V27.6583C198.594 29.7969 198.744 29.8967 200.54 30.082V30.8947L194.124 30.8519Z" fill="#9F9FA9"/>
</svg>

<svg xmlns="http://www.w3.org/2000/svg" width="201" height="40" fill="currentColor"><defs><mask id="a"><path fill="#fff" d="M0 0h201v40H0z"/><path fill="#000" d="M31.717 23.965a4.085 4.085 0 0 0-3.486-2.195l8.369-1.761-8.37-1.747a6.73 6.73 0 0 1 4.157-1.56c1.84 0 3.436-2.303 2.417-4.05 0 0-.3 2.745-3.736 1.832a4.02 4.02 0 0 0-4.006.927l4.69-7.207-7.128 4.719a6.83 6.83 0 0 1 1.803-4.1c1.284-1.332.82-4.07-1.126-4.583 0 0 1.71 2.139-1.362 3.957a4.134 4.134 0 0 0-2.181 3.514l-1.747-8.419-1.746 8.433a6.793 6.793 0 0 1-1.554-4.184c0-1.86-2.281-3.465-4.014-2.438 0 0 2.724.3 1.811 3.764a4.133 4.133 0 0 0 .927 4.042L8.306 8.182l3.821 5.881.841 1.348a6.723 6.723 0 0 1-4.042-1.854c-1.319-1.326-4.042-.855-4.548 1.141 0 0 2.139-1.725 3.928 1.376a4.078 4.078 0 0 0 3.486 2.188l-8.37 1.733 8.37 1.76a6.745 6.745 0 0 1-4.156 1.562c-1.846 0-3.436 2.302-2.424 4.049 0 0 .307-2.745 3.743-1.832a4.02 4.02 0 0 0 4.006-.934l-4.683 7.207 7.128-4.72a6.887 6.887 0 0 1-1.81 4.078c-1.284 1.334-.82 4.07 1.126 4.584 0 0-1.711-2.138 1.362-3.956a4.112 4.112 0 0 0 2.174-3.55l1.753 8.469 1.747-8.434a6.837 6.837 0 0 1 1.554 4.185c0 1.86 2.281 3.464 4.014 2.438 0 0-2.724-.3-1.818-3.764a4.12 4.12 0 0 0-.927-4.042l7.129 4.72-2.431-3.808-2.217-3.4a6.78 6.78 0 0 1 4.042 1.853c1.319 1.298 4.042.827 4.548-1.133 0 0-2.139 1.725-3.928-1.376"/></mask></defs><circle cx="20" cy="20" r="19.5" fill="#9F9FA9" mask="url(#a)"/><path fill="#9F9FA9" d="M57.003 15.345c-.556-1.989-1.355-4.142-4.05-4.142a3.258 3.258 0 0 0-3.428 3.43c0 2.273 1.482 3.328 3.928 4.604 2.445 1.276 5.346 2.71 5.346 6.202 0 3.265-2.752 5.882-6.865 5.882a10.823 10.823 0 0 1-3.022-.464 9.988 9.988 0 0 1-1.519-.656 38.175 38.175 0 0 1-.834-4.833l.898-.22c.528 1.902 1.882 5.046 5.069 5.046a3.45 3.45 0 0 0 3.707-3.735c0-2.303-1.697-3.393-4.02-4.641-1.976-1.062-5.098-2.616-5.098-6.138 0-2.987 2.381-5.539 6.366-5.539 1.327.034 2.64.274 3.892.713.129 1.12.285 2.338.528 4.277l-.898.214ZM77.748 30.85v-.812c1.817-.186 2.138-.307 2.138-2.524v-5.197c0-2.21-.77-3.614-2.716-3.614-1.3.133-2.517.71-3.443 1.632.07.434.102.873.093 1.312v6.074c0 1.96.278 2.138 1.981 2.33v.814h-6.615v-.827c1.91-.186 2.195-.343 2.195-2.396v-5.36c0-2.303-.805-3.565-2.694-3.565-1.233 0-2.438.841-3.365 1.618v7.307c0 2.025.242 2.21 1.76 2.396v.812H60.56v-.812c2.039-.186 2.317-.371 2.317-2.396v-6.415c0-1.997-.093-2.14-1.882-2.431v-.713a18.41 18.41 0 0 0 4.277-1.276v2.523c.649-.435 1.333-.998 2.26-1.59a4.576 4.576 0 0 1 2.552-.876 3.692 3.692 0 0 1 3.436 2.559 25.778 25.778 0 0 1 2.567-1.747 4.277 4.277 0 0 1 2.316-.812c2.41 0 3.921 1.718 3.921 4.769v6.01c0 2.088.25 2.21 2.01 2.395v.812h-6.587ZM87.664 12.566a1.6 1.6 0 0 1 1.582-1.619 1.546 1.546 0 0 1 1.512 1.619 1.59 1.59 0 0 1-1.576 1.59 1.625 1.625 0 0 1-1.547-1.59M86.031 30.85v-.813c1.946-.185 2.139-.37 2.139-2.488v-6.416c0-1.932-.093-2.06-1.946-2.367v-.712c1.505-.233 2.98-.64 4.391-1.212V27.55c0 2.139.214 2.303 2.189 2.488v.813H86.03ZM100.061 30.824a3.13 3.13 0 0 1-1.298.399c-1.946 0-3.03-1.24-3.03-3.707v-9.06H93.61l-.128-.314.841-.898h1.426v-2.275l2.01-2.06.428.064v4.278h3.493a.894.894 0 0 1-.185 1.211h-3.322v7.999c0 2.524 1.026 2.987 1.796 2.987a4.384 4.384 0 0 0 1.918-.556l.278.841-2.103 1.09ZM111.894 30.852v-.813c1.797-.185 2.046-.37 2.046-2.395v-5.168c0-2.56-.962-3.835-3.03-3.835a4.33 4.33 0 0 0-3.215 1.59v7.413c0 1.996.15 2.21 1.975 2.395v.813h-6.551v-.813c1.853-.15 2.138-.342 2.138-2.395V12.788c0-1.96-.057-2.139-2.138-2.303v-.713c1.54-.253 3.06-.617 4.548-1.09V19.14c1.083-1.12 2.751-2.275 4.42-2.275 2.502 0 4.277 1.59 4.277 5.326v5.453c0 2.053.214 2.246 2.039 2.395v.813h-6.509ZM127.906 20.916c-.585-1.84-1.668-3.08-3.18-3.08a2.022 2.022 0 0 0-2.01 2.139c0 1.425 1.233 2.138 2.623 2.709 2.324.97 3.9 2.088 3.9 4.234 0 2.852-2.631 4.277-5.104 4.277a6.188 6.188 0 0 1-3.565-1.055c-.323-1.2-.49-2.436-.499-3.678l.806-.157c.556 2.06 1.946 3.864 3.799 3.864a2.132 2.132 0 0 0 1.565-.62 2.138 2.138 0 0 0 .631-1.562c0-1.368-.891-2.138-2.438-2.851-1.853-.877-3.864-1.903-3.864-4.277 0-2.182 1.854-4.021 4.698-4.021a7.13 7.13 0 0 1 2.752.535c.303 1.092.53 2.205.677 3.329l-.791.214ZM134.429 23.345c0 3.928 1.696 6.85 4.234 6.85 1.918 0 3.493-1.425 3.493-5.703 0-3.65-1.425-6.608-4.142-6.608-1.917 0-3.564 1.932-3.564 5.453m10.601.471c0 4.99-3.643 7.407-6.709 7.407a6.71 6.71 0 0 1-4.839-2.007 6.707 6.707 0 0 1-1.926-4.872c0-5.14 3.957-7.479 6.765-7.479a6.738 6.738 0 0 1 6.709 6.951ZM155.537 30.852v-.813c1.825-.185 2.046-.435 2.046-2.58v-5.204c0-2.139-.749-3.565-2.852-3.565a5.515 5.515 0 0 0-3.372 1.59v7.335c0 2.14.186 2.239 2.011 2.424v.813h-6.708v-.813c2.103-.214 2.259-.37 2.259-2.424V21.2c0-1.99-.185-2.09-1.853-2.396v-.712a18.048 18.048 0 0 0 4.277-1.277v2.495c.62-.47 1.298-.933 2.075-1.468a4.737 4.737 0 0 1 2.566-.934c2.438 0 3.985 1.718 3.985 4.734v6.016c0 2.139.157 2.239 1.946 2.424v.813l-6.38-.043ZM165.339 12.566a1.605 1.605 0 0 1 .452-1.136 1.602 1.602 0 0 1 1.123-.483 1.554 1.554 0 0 1 1.547 1.619 1.598 1.598 0 0 1-1.582 1.59 1.628 1.628 0 0 1-1.54-1.59Zm-1.64 18.285v-.813c1.946-.185 2.139-.37 2.139-2.488v-6.416c0-1.932-.093-2.06-1.946-2.367v-.712a19.699 19.699 0 0 0 4.391-1.212V27.55c0 2.139.214 2.303 2.196 2.488v.813h-6.78ZM179.582 23.374c-.648.342-2.138.998-2.78 1.312-1.205.563-1.882 1.148-1.882 2.274a2.267 2.267 0 0 0 2.196 2.395 4.354 4.354 0 0 0 2.466-1.119v-4.862Zm2.26 7.842a2.514 2.514 0 0 1-1.426-.592c-.351-.41-.595-.9-.713-1.426-1.233.841-2.723 1.99-3.649 1.99a3.745 3.745 0 0 1-3.707-3.8c0-1.526.805-2.488 2.502-3.08 1.853-.627 4.113-1.468 4.79-2.024v-.52c0-2.24-1.048-3.523-2.595-3.523a1.717 1.717 0 0 0-1.425.628 4.592 4.592 0 0 0-.927 2.053.86.86 0 0 1-.898.713 1.508 1.508 0 0 1-1.355-1.34c0-.471.4-.813.984-1.248a13.804 13.804 0 0 1 4.641-2.181 4.018 4.018 0 0 1 2.516.84c1.084.906 1.39 2.182 1.39 3.8v5.796c0 1.426.556 1.868 1.084 1.868a2.337 2.337 0 0 0 1.112-.342l.307.812-2.631 1.576ZM194.124 30.852v-.813c1.825-.185 2.039-.435 2.039-2.58v-5.204c0-2.139-.713-3.565-2.809-3.565a5.495 5.495 0 0 0-3.371 1.59v7.335c0 2.14.185 2.239 2.01 2.424v.813h-6.708v-.813c2.103-.214 2.259-.37 2.259-2.424V21.2c0-1.99-.185-2.09-1.853-2.396v-.712a18.151 18.151 0 0 0 4.277-1.277v2.495c.62-.47 1.298-.933 2.075-1.468a4.74 4.74 0 0 1 2.559-.934c2.445 0 3.992 1.718 3.992 4.734v6.016c0 2.139.15 2.239 1.946 2.424v.813l-6.416-.043Z"/></svg>
